X: 97
T: Greencastle
B: tunes
B: good tune book
M:4/4
L:1/8
R: hornpipe
Q: 1/4=100
K:G
V:1 
dc|:"G"BGDG BGDG|(3gag fg "C"e2dc|"G"BGDG BGDG|"Am"dcB<c "D7"A2dc|
"G"BGDG BGDG|(3gag fg "C"e2dc|"G"Bdfe "D7"dcAF|1"G"G2B2 G2dc:||2"G"G2B2G2 ga||
|:"Em"bagf efga|bagf e2fg|"D"agfe defg|agfe "D7"d2 (3def|
"G"gfgd "C"e2"G"d2|"Am"cBAB "D7"cdef|"G"gfgd "D7"ecAF|"G"G2B2G4:|
% abcbook-tune_id 627e2b1f96f1b48d123668f7
% abcbook-tune_composer_id 
% abcbook-link-0 https://www.youtube.com/watch?v=Gqfy_m9l9rs
% abcbook-boost 5
% abcbook-difficulty 9
% abcbook-tags begged borrowed and stolen,good tune book
% abcbook-tablature 
% abcbook-transpose 
% abcbook-tuning 
% abcbook-lastupdated 1675773484583
% abcbook-soundfonts 
% abcbook-repeats 3
% Rhythm Hornpipe
% Titles One title
% Transcriptions Only 1 transcription
% Movement Has some stepwise movement
% Movement Never repeats a note
% Mode major
% Key G
% Time_signature 4/4
% Has_accompaniment_chords Has chords

